app/assets/images/heroicons/mini/face-frown.svg

<svg width="20" height="20" viewBox="0 0 20 20" fill="none" xmlns="http://www.w3.org/2000/svg">
<path fill-rule="evenodd" clip-rule="evenodd" d="M10 18C14.4183 18 18 14.4183 18 10C18 5.58172 14.4183 2 10 2C5.58172 2 2 5.58172 2 10C2 14.4183 5.58172 18 10 18ZM6.46447 14.5251C6.75736 14.818 7.23223 14.818 7.52513 14.5251C8.89196 13.1583 11.108 13.1583 12.4749 14.5251C12.7678 14.818 13.2426 14.818 13.5355 14.5251C13.8284 14.2323 13.8284 13.7574 13.5355 13.4645C11.5829 11.5119 8.41709 11.5119 6.46447 13.4645C6.17157 13.7574 6.17157 14.2323 6.46447 14.5251ZM9 8.5C9 9.32843 8.55228 10 8 10C7.44772 10 7 9.32843 7 8.5C7 7.67157 7.44772 7 8 7C8.55228 7 9 7.67157 9 8.5ZM12 10C12.5523 10 13 9.32843 13 8.5C13 7.67157 12.5523 7 12 7C11.4477 7 11 7.67157 11 8.5C11 9.32843 11.4477 10 12 10Z" fill="#0F172A"/>
</svg>

<svg xmlns="http://www.w3.org/2000/svg" viewBox="0 0 20 20" fill="currentColor" aria-hidden="true" data-slot="icon">
  <path fill-rule="evenodd" d="M10 18a8 8 0 1 0 0-16 8 8 0 0 0 0 16Zm-3.536-3.475a.75.75 0 0 0 1.061 0 3.5 3.5 0 0 1 4.95 0 .75.75 0 1 0 1.06-1.06 5 5 0 0 0-7.07 0 .75.75 0 0 0 0 1.06ZM9 8.5c0 .828-.448 1.5-1 1.5s-1-.672-1-1.5S7.448 7 8 7s1 .672 1 1.5Zm3 1.5c.552 0 1-.672 1-1.5S12.552 7 12 7s-1 .672-1 1.5.448 1.5 1 1.5Z" clip-rule="evenodd"/>
</svg>
